icons/Adwaita-yellow/scalable/places/folder-templates.svg

<?xml version="1.0" encoding="UTF-8"?>
<svg height="128px" viewBox="0 0 128 128" width="128px" xmlns="http://www.w3.org/2000/svg" xmlns:xlink="http://www.w3.org/1999/xlink">
    <linearGradient id="a" gradientTransform="matrix(0.45451 0 0 0.455522 -1210.292114 616.172607)" gradientUnits="userSpaceOnUse" x1="2689.251953" x2="2918.069824" y1="-1106.802979" y2="-1106.802979">
        <stop offset="0" stop-color="#62a0ea"/>
        <stop offset="0.0576991" stop-color="#afd4ff"/>
        <stop offset="0.122204" stop-color="#62a0ea"/>
        <stop offset="0.873306" stop-color="#62a0ea"/>
        <stop offset="0.955997" stop-color="#c0d5ea"/>
        <stop offset="1" stop-color="#62a0ea"/>
    </linearGradient>
    <path d="m 21.976562 12 c -5.527343 0 -9.976562 4.460938 -9.976562 10 v 86.03125 c 0 5.542969 4.449219 10 9.976562 10 h 84.042969 c 5.53125 0 9.980469 -4.457031 9.980469 -10 v -72.085938 c 0 -6.628906 -5.359375 -12 -11.972656 -12 h -46.027344 c -2.453125 0 -4.695312 -1.386718 -5.796875 -3.582031 l -1.503906 -2.992187 c -1.65625 -3.292969 -5.019531 -5.371094 -8.699219 -5.371094 z m 0 0" fill="#438de6"/>
    <path d="m 65.976562 36 c -2.746093 0 -5.226562 1.101562 -7.027343 2.890625 c -2.273438 2.253906 -5.382813 5.109375 -8.632813 5.109375 h -28.339844 c -5.527343 0 -9.976562 4.460938 -9.976562 10 v 54.03125 c 0 5.542969 4.449219 10 9.976562 10 h 84.042969 c 5.53125 0 9.980469 -4.457031 9.980469 -10 v -62.03125 c 0 -5.539062 -4.449219 -10 -9.980469 -10 z m 0 0" fill="url(#a)"/>
    <path d="m 65.976562 32 c -2.746093 0 -5.226562 1.101562 -7.027343 2.890625 c -2.273438 2.253906 -5.382813 5.109375 -8.632813 5.109375 h -28.339844 c -5.527343 0 -9.976562 4.460938 -9.976562 10 v 55.976562 c 0 5.539063 4.449219 10 9.976562 10 h 84.042969 c 5.53125 0 9.980469 -4.460937 9.980469 -10 v -63.976562 c 0 -5.539062 -4.449219 -10 -9.980469 -10 z m 0 0" fill="#a4caee"/>
    <path d="m 58 60 c -3.289062 0 -6 2.710938 -6 6 v 15.992188 h 2 v -1.992188 h 2 v -14 c 0 -1.140625 0.859375 -2 2 -2 h 8 v 3 c 0 2 1 3 3 3 h 3 v 16 h 2 v 2 h 2 v -19 c 0 -0.53125 -0.210938 -1.039062 -0.585938 -1.414062 l -7 -7 c -0.375 -0.375 -0.882812 -0.585938 -1.414062 -0.585938 z m 16 28 h -2 v 1.984375 h -2 v 2 h 2 v -1.984375 h 2 z m -4 1.984375 v -2 h -2 v 2 z m -2 0 h -2 v 2 h 2 z m -2 0 v -2 h -2 v 2 z m -2 0 h -2 v 2 h 2 z m -2 0 v -2 h -2 v 2 z m -2 0 h -2 v 2 h 2 z m -2 0 v -2 h -2 v 2 z m -2 0 h -2 v 2 h 2 z m -2 0 v -2 h -2 v 2 z m 0 -2 h 2 v -2 h -2 z m 0 -2 v -2 h -2 v 2 z m 0 -2 h 2 v -2 h -2 z m 0 0" fill="#438de6"/>
</svg>

<svg width="128" height="128" viewBox="0 0 128 128" fill="none" xmlns="http://www.w3.org/2000/svg">
<path d="M21.9766 12C16.4492 12 12 16.4609 12 22V108.031C12 113.574 16.4492 118.031 21.9766 118.031H106.02C111.551 118.031 116 113.574 116 108.031V35.9453C116 29.3164 110.641 23.9453 104.027 23.9453H58C55.5469 23.9453 53.3047 22.5586 52.2031 20.3633L50.6992 17.3711C49.043 14.0781 45.6797 12 42 12H21.9766Z" fill="#F6D32D"/>
<path d="M65.9766 36C63.2305 36 60.75 37.1016 58.9492 38.8906C56.6758 41.1445 53.5664 44 50.3164 44H21.9766C16.4492 44 12 48.4609 12 54V108.031C12 113.574 16.4492 118.031 21.9766 118.031H106.02C111.551 118.031 116 113.574 116 108.031V46C116 40.4609 111.551 36 106.02 36H65.9766Z" fill="url(#paint0_linear_13_274)"/>
<path d="M65.9766 32C63.2305 32 60.75 33.1016 58.9492 34.8906C56.6758 37.1445 53.5664 40 50.3164 40H21.9766C16.4492 40 12 44.4609 12 50V105.977C12 111.516 16.4492 115.977 21.9766 115.977H106.02C111.551 115.977 116 111.516 116 105.977V42C116 36.4609 111.551 32 106.02 32H65.9766Z" fill="#F9F06B"/>
<path d="M58 60C54.7109 60 52 62.7109 52 66V81.9922H54V80H56V66C56 64.8594 56.8594 64 58 64H66V67C66 69 67 70 69 70H72V86H74V88H76V69C76 68.4688 75.7891 67.9609 75.4141 67.5859L68.4141 60.5859C68.0391 60.2109 67.5312 60 67 60H58ZM74 88H72V89.9844H70V91.9844H72V90H74V88ZM70 89.9844V87.9844H68V89.9844H70ZM68 89.9844H66V91.9844H68V89.9844ZM66 89.9844V87.9844H64V89.9844H66ZM64 89.9844H62V91.9844H64V89.9844ZM62 89.9844V87.9844H60V89.9844H62ZM60 89.9844H58V91.9844H60V89.9844ZM58 89.9844V87.9844H56V89.9844H58ZM56 89.9844H54V91.9844H56V89.9844ZM54 89.9844V87.9844H52V89.9844H54ZM54 87.9844H56V85.9844H54V87.9844ZM54 85.9844V83.9844H52V85.9844H54ZM54 83.9844H56V81.9844H54V83.9844Z" fill="#F6D32D"/>
<defs>
<linearGradient id="paint0_linear_13_274" x1="11.9998" y1="112" x2="116" y2="112" gradientUnits="userSpaceOnUse">
<stop stop-color="#F8E45C"/>
<stop offset="0.0576991" stop-color="#F5F0A6"/>
<stop offset="0.122204" stop-color="#F8E45C"/>
<stop offset="0.873306" stop-color="#F8E45C"/>
<stop offset="0.955997" stop-color="#F5F0A6"/>
<stop offset="1" stop-color="#F8E45C"/>
</linearGradient>
</defs>
</svg>
